flaticon/baby/building.svg

<svg xmlns="http://www.w3.org/2000/svg" width="32" height="32" viewBox="0 0 24 24">
    <path d="M 20.800781 18.09375 L 20.800781 11.691406 L 16 11.691406 L 16 7.691406 L 18.519531 7.691406 L 12 0.707031 L 5.480469 7.691406 L 8 7.691406 L 8 11.691406 L 3.199219 11.691406 L 3.199219 18.09375 L 0 18.09375 L 0 23.292969 L 8.800781 23.292969 L 8.800781 18.144531 C 8.800781 17.257812 9.257812 15.992188 9.996094 15.5 C 11.214844 14.6875 12.785156 14.6875 14.003906 15.5 C 14.742188 15.992188 15.199219 17.257812 15.199219 18.144531 L 15.199219 23.292969 L 24 23.292969 L 24 18.09375 Z M 7.320312 6.894531 L 12 1.878906 L 16.679688 6.894531 Z M 15.199219 7.691406 L 15.199219 9.292969 L 8.800781 9.292969 L 8.800781 7.691406 Z M 8.800781 10.09375 L 15.199219 10.09375 L 15.199219 11.691406 L 8.800781 11.691406 Z M 0.800781 22.492188 L 0.800781 18.894531 L 4 18.894531 L 4 22.492188 Z M 8 22.492188 L 4.800781 22.492188 L 4.800781 18.894531 L 8 18.894531 Z M 9.554688 14.835938 C 8.558594 15.496094 8.015625 16.992188 8 18.09375 L 4 18.09375 L 4 12.492188 L 11.601562 12.492188 L 11.601562 14.109375 C 10.882812 14.175781 10.179688 14.417969 9.554688 14.835938 Z M 14.445312 14.835938 C 13.820312 14.414062 13.117188 14.175781 12.398438 14.109375 L 12.398438 12.492188 L 20 12.492188 L 20 18.09375 L 16 18.09375 C 15.984375 16.992188 15.441406 15.496094 14.445312 14.835938 Z M 16 22.492188 L 16 18.894531 L 19.199219 18.894531 L 19.199219 22.492188 Z M 23.199219 22.492188 L 20 22.492188 L 20 18.894531 L 23.199219 18.894531 Z M 23.199219 22.492188"/>
</svg>

<svg xmlns="http://www.w3.org/2000/svg" width="32" height="32" viewBox="0 0 24 24">
    <path d="M20.8 18.094V11.69H16v-4h2.52L12 .707 5.48 7.691H8v4H3.2v6.403H0v5.199h8.8v-5.148c0-.887.458-2.153 1.196-2.645a3.6 3.6 0 0 1 4.008 0c.738.492 1.195 1.758 1.195 2.645v5.148H24v-5.2zM7.32 6.894L12 1.88l4.68 5.016zm7.88.797v1.602H8.8V7.691zm-6.4 2.403h6.4v1.597H8.8zm-8 12.398v-3.597H4v3.597zm7.2 0H4.8v-3.597H8zm1.555-7.656c-.996.66-1.54 2.156-1.555 3.258H4v-5.602h7.602v1.617a4.404 4.404 0 0 0-2.047.727zm4.89 0a4.36 4.36 0 0 0-2.047-.727v-1.617H20v5.602h-4c-.016-1.102-.559-2.598-1.555-3.258zM16 22.492v-3.597h3.2v3.597zm7.2 0H20v-3.597h3.2zm0 0"/>
</svg>
